src/images/brightness.svg

<?xml version="1.0" encoding="UTF-8" standalone="no"?>
<svg
   width="14"
   height="14"
   viewBox="0 0 14 14"
   fill="none"
   version="1.1"
   id="svg27"
   sodipodi:docname="brightness 1.svg"
   inkscape:export-filename="brightness 1.png"
   inkscape:export-xdpi="1028.5714"
   inkscape:export-ydpi="1028.5714"
   inkscape:version="1.2.2 (732a01da63, 2022-12-09)"
   xmlns:inkscape="http://www.inkscape.org/namespaces/inkscape"
   xmlns:sodipodi="http://sodipodi.sourceforge.net/DTD/sodipodi-0.dtd"
   xmlns="http://www.w3.org/2000/svg"
   xmlns:svg="http://www.w3.org/2000/svg">
  <sodipodi:namedview
     id="namedview29"
     pagecolor="#ffffff"
     bordercolor="#000000"
     borderopacity="0.25"
     inkscape:showpageshadow="2"
     inkscape:pageopacity="0.0"
     inkscape:pagecheckerboard="0"
     inkscape:deskcolor="#d1d1d1"
     showgrid="false"
     inkscape:zoom="58.142857"
     inkscape:cx="1.4017199"
     inkscape:cy="7.0085995"
     inkscape:window-width="1920"
     inkscape:window-height="1001"
     inkscape:window-x="-9"
     inkscape:window-y="-9"
     inkscape:window-maximized="1"
     inkscape:current-layer="svg27" />
  <g
     clip-path="url(#clip0_11939_152)"
     id="g20"
     transform="translate(0.03439802,0.27518425)">
    <path
       d="m 6.99989,2.7179 c -2.36494,0 -4.28212,1.91717 -4.28212,4.28211 0,2.36494 1.91718,4.28209 4.28212,4.28209 2.36494,0 4.28211,-1.91715 4.28211,-4.28209 0,-2.36494 -1.91717,-4.28211 -4.28211,-4.28211 z m 0,7.7821 V 3.50002 C 8.66175,3.4956 10.0949,4.6667 10.4217,6.29611 c 0.1043,0.46348 0.1043,0.94433 0,1.40781 C 10.0949,9.3334 8.66175,10.5045 6.99989,10.5 Z"
       fill="#ffffff"
       id="path2" />
    <path
       d="m 10.4412,3.55866 c 0.0722,0.07369 0.1706,0.11583 0.2737,0.11733 0.1032,-0.00146 0.2016,-0.04364 0.2738,-0.11733 l 0.9581,-0.9581 C 12.1196,2.47095 12.1546,2.22585 12.025,2.05306 11.8954,1.88026 11.6503,1.84527 11.4775,1.97484 11.4478,1.99707 11.4215,2.02341 11.3993,2.05306 l -0.9581,0.9581 c -0.1512,0.1387 -0.1613,0.37373 -0.0226,0.52489 0.0072,0.00786 0.0147,0.01539 0.0226,0.02261 z"
       fill="#ffffff"
       id="path4" />
    <path
       d="m 3.48036,10.4415 c -0.13904,-0.1043 -0.33025,-0.1043 -0.46929,0 l -0.9581,0.9581 c -0.1512,0.1387 -0.1613,0.3737 -0.02256,0.5249 0.00718,0.0078 0.01474,0.0154 0.02256,0.0226 0.1387,0.1512 0.37374,0.1613 0.5249,0.0225 0.00786,-0.0072 0.01538,-0.0147 0.02257,-0.0225 l 0.9581,-0.9582 C 3.68815,10.8162 3.65315,10.5711 3.48036,10.4415 Z"
       fill="#ffffff"
       id="path6" />
    <path
       d="M 11.9471,11.3995 10.989,10.4414 c -0.1728,-0.1296 -0.4179,-0.0946 -0.5475,0.0782 -0.1043,0.1391 -0.1043,0.3303 0,0.4693 l 0.9581,0.9581 c 0.1387,0.1512 0.3737,0.1613 0.5249,0.0226 0.0078,-0.0072 0.0154,-0.0148 0.0225,-0.0226 0.1512,-0.1387 0.1613,-0.3737 0.0226,-0.5249 -0.0071,-0.0079 -0.0147,-0.0154 -0.0225,-0.0226 z"
       fill="#ffffff"
       id="path8" />
    <path
       d="m 3.01095,3.55866 c 0.1387,0.1512 0.37373,0.16131 0.5249,0.02257 C 3.54371,3.57404 3.55123,3.56648 3.55842,3.55866 3.70962,3.41996 3.71972,3.18493 3.58098,3.03377 3.5738,3.02591 3.56624,3.01838 3.55842,3.0112 L 2.60031,2.0531 C 2.42752,1.92349 2.18242,1.95852 2.05281,2.13132 c -0.10427,0.13903 -0.10427,0.33024 0,0.46928 z"
       fill="#ffffff"
       id="path10" />
    <path
       d="m 6.99995,2.13129 c 0.21598,0 0.39106,-0.17508 0.39106,-0.39106 V 0.391063 C 7.39101,0.175078 7.21593,0 6.99995,0 6.78396,0 6.60889,0.175078 6.60889,0.391063 V 1.74023 c 0,0.21598 0.17507,0.39106 0.39106,0.39106 z"
       fill="#ffffff"
       id="path12" />
    <path
       d="m 6.99995,11.8688 c -0.21599,0 -0.39106,0.1751 -0.39106,0.391 v 1.3492 c 0,0.216 0.17507,0.3911 0.39106,0.3911 0.21598,0 0.39106,-0.1751 0.39106,-0.3911 v -1.3492 c 0,-0.2159 -0.17508,-0.391 -0.39106,-0.391 z"
       fill="#ffffff"
       id="path14" />
    <path
       d="m 13.6089,6.60901 h -1.3492 c -0.216,0 -0.391,0.17508 -0.391,0.39106 0,0.21598 0.175,0.39106 0.391,0.39106 h 1.3492 c 0.216,0 0.391,-0.17508 0.391,-0.39106 0,-0.21598 -0.1751,-0.39106 -0.391,-0.39106 z"
       fill="#ffffff"
       id="path16" />
    <path
       d="m 2.13129,7.00007 c 0,-0.21598 -0.17508,-0.39106 -0.39106,-0.39106 H 0.391063 C 0.175078,6.60901 0,6.78409 0,7.00007 0,7.21605 0.175078,7.39113 0.391063,7.39113 H 1.74023 c 0.21598,0 0.39106,-0.17508 0.39106,-0.39106 z"
       fill="#ffffff"
       id="path18" />
  </g>
  <defs
     id="defs25">
    <clipPath
       id="clip0_11939_152">
      <rect
         width="14"
         height="14"
         fill="white"
         id="rect22" />
    </clipPath>
  </defs>
</svg>

<svg width="14" height="14" viewBox="0 0 14 14" fill="currentColor" xmlns="http://www.w3.org/2000/svg">
<g clip-path="url(#clip0_25_1122)">
<path d="M6.99989 2.7179C4.63495 2.7179 2.71777 4.63507 2.71777 7.00001C2.71777 9.36495 4.63495 11.2821 6.99989 11.2821C9.36483 11.2821 11.282 9.36495 11.282 7.00001C11.282 4.63507 9.36483 2.7179 6.99989 2.7179ZM6.99989 10.5V3.50002C8.66175 3.4956 10.0949 4.6667 10.4217 6.29611C10.526 6.75959 10.526 7.24044 10.4217 7.70392C10.0949 9.3334 8.66175 10.5045 6.99989 10.5Z" fill="currentColor"/>
<path d="M10.4417 3.55866C10.5139 3.63235 10.6123 3.67449 10.7154 3.67599C10.8186 3.67453 10.917 3.63235 10.9891 3.55866L11.9473 2.60056C12.1201 2.47095 12.155 2.22585 12.0255 2.05306C11.8959 1.88026 11.6508 1.84527 11.478 1.97484C11.4483 1.99707 11.422 2.02341 11.3998 2.05306L10.4416 3.01116C10.2904 3.14986 10.2803 3.38489 10.4191 3.53605C10.4263 3.54391 10.4338 3.55144 10.4417 3.55866Z" fill="currentColor"/>
<path d="M3.48036 10.4415C3.34132 10.3372 3.15011 10.3372 3.01107 10.4415L2.05297 11.3996C1.90177 11.5383 1.89167 11.7733 2.03041 11.9245C2.03759 11.9323 2.04515 11.9399 2.05297 11.9471C2.19167 12.0983 2.42671 12.1084 2.57787 11.9696C2.58573 11.9624 2.59325 11.9549 2.60044 11.9471L3.55854 10.9889C3.68815 10.8162 3.65315 10.5711 3.48036 10.4415Z" fill="currentColor"/>
<path d="M11.9471 11.3995L10.989 10.4414C10.8162 10.3118 10.5711 10.3468 10.4415 10.5196C10.3372 10.6587 10.3372 10.8499 10.4415 10.9889L11.3996 11.947C11.5383 12.0982 11.7733 12.1083 11.9245 11.9696C11.9323 11.9624 11.9399 11.9548 11.947 11.947C12.0982 11.8083 12.1083 11.5733 11.9696 11.4221C11.9625 11.4142 11.9549 11.4067 11.9471 11.3995Z" fill="currentColor"/>
<path d="M3.01095 3.55866C3.14965 3.70986 3.38468 3.71997 3.53585 3.58123C3.54371 3.57404 3.55123 3.56648 3.55842 3.55866C3.70962 3.41996 3.71972 3.18493 3.58098 3.03377C3.5738 3.02591 3.56624 3.01838 3.55842 3.0112L2.60031 2.0531C2.42752 1.92349 2.18242 1.95852 2.05281 2.13132C1.94854 2.27035 1.94854 2.46156 2.05281 2.6006L3.01095 3.55866Z" fill="currentColor"/>
<path d="M7.00044 2.13129C7.21642 2.13129 7.3915 1.95621 7.3915 1.74023V0.391063C7.3915 0.175078 7.21642 0 7.00044 0C6.78445 0 6.60938 0.175078 6.60938 0.391063V1.74023C6.60938 1.95621 6.78445 2.13129 7.00044 2.13129Z" fill="currentColor"/>
<path d="M7.00044 11.8688C6.78445 11.8688 6.60938 12.0439 6.60938 12.2598V13.609C6.60938 13.825 6.78445 14.0001 7.00044 14.0001C7.21642 14.0001 7.3915 13.825 7.3915 13.609V12.2598C7.3915 12.0439 7.21642 11.8688 7.00044 11.8688Z" fill="currentColor"/>
<path d="M13.6094 6.60901H12.2602C12.0442 6.60901 11.8691 6.78409 11.8691 7.00007C11.8691 7.21605 12.0442 7.39113 12.2602 7.39113H13.6094C13.8254 7.39113 14.0004 7.21605 14.0004 7.00007C14.0004 6.78409 13.8253 6.60901 13.6094 6.60901Z" fill="currentColor"/>
<path d="M2.13129 7.00007C2.13129 6.78409 1.95621 6.60901 1.74023 6.60901H0.391063C0.175078 6.60901 0 6.78409 0 7.00007C0 7.21605 0.175078 7.39113 0.391063 7.39113H1.74023C1.95621 7.39113 2.13129 7.21605 2.13129 7.00007Z" fill="currentColor"/>
</g>
<defs>
<clipPath id="clip0_25_1122">
<rect width="14" height="14" fill="currentColor"/>
</clipPath>
</defs>
</svg>
